icons/themes/default/crumpled-paper.svg

<svg viewBox="0 0 20 20" fill="none" xmlns="http://www.w3.org/2000/svg">
<path d="M15.1 8.26923V6.64221C15.1 5.87349 14.6594 5.17279 13.9666 4.83971L11.5 3.65385M15.1 8.26923L12.9673 9.08949C12.4173 9.30102 11.9886 9.74433 11.7956 10.3011L11.5 11.1538M15.1 8.26923L17.5 10M11.5 3.65385L8.35877 2.89874C7.40315 2.66903 6.42223 3.16771 6.04473 4.07517L5.5 5.38462M11.5 3.65385L9.96298 5.50123C9.44145 6.12806 8.5916 6.37551 7.81509 6.12663L5.5 5.38462M5.5 5.38462L5.01886 5.56967C3.76547 6.05174 3.33389 7.60755 4.15981 8.66642L4.3 8.84615M7.3 8.84615H4.3M4.3 8.84615L3.54323 11.7568C3.28987 12.7313 3.80042 13.7422 4.73507 14.1166L6.14244 14.6805C6.50612 14.8262 6.819 15.0755 7.04223 15.3974L7.69275 16.3357C8.17639 17.0333 9.04767 17.3495 9.86616 17.1247L12.7 16.3462M12.7 16.3462L13.7111 13.4296C13.8345 13.0735 14.056 12.7596 14.3501 12.5239L17.5 10M12.7 16.3462L10.3 14.9038M12.7 16.3462L15.2177 15.5392C15.8888 15.3241 16.3972 14.7716 16.5559 14.085L17.5 10" stroke="currentColor" stroke-width="1.1" stroke-linejoin="round"/>
</svg>

<svg xmlns="http://www.w3.org/2000/svg" fill="none" viewBox="0 0 20 20">
  <path stroke="currentColor" stroke-linejoin="round" stroke-width="1.1" d="M15.1 8.27V6.641a2 2 0 0 0-1.133-1.802L11.5 3.654m3.6 4.615-2.133.82a2 2 0 0 0-1.171 1.212l-.296.853m3.6-2.885L17.5 10m-6-6.346-3.141-.755a2 2 0 0 0-2.314 1.176L5.5 5.385m6-1.731L9.963 5.5a2 2 0 0 1-2.148.626L5.5 5.385m0 0-.481.185a2 2 0 0 0-.86 3.096l.141.18m3 0h-3m0 0-.757 2.91a2 2 0 0 0 1.192 2.36l1.407.565a2 2 0 0 1 .9.716l.65.939a2 2 0 0 0 2.174.789l2.834-.779m0 0 1.011-2.916a2 2 0 0 1 .64-.906L17.5 10m-4.8 6.346-2.4-1.442m2.4 1.442 2.518-.807a2 2 0 0 0 1.338-1.454L17.5 10"/>
</svg>
